X:1
T:Title
%%score ( 1 2 ) { ( 3 5 ) | 4 }
L:1/8
Q:1/4=112
M:4/4
K:D
V:1 treble nm="Grand Piano, Soprano"
V:2 treble 
V:3 bass nm="Choir Pad, Sutherland (Bradbury), HM"
V:5 bass 
V:4 bass 
V:1
 [FA]2 [Fd]2 [Gc]2 [Ad]2 | [FA]2 [GB]4 [GB][Bd] | [Ac][GB] [FA]2 [EG]2 [DF]2 | [CE]2 D4 z2 | %4
w: By~William~Batchelder~Bradbury~(1816\-1868) * * *||||
 [FA]2 [Fd]2 [Gc]2 [Ad]2 | [FA]2 [GB]4 [GB][Bd] | [Ac][GB] [FA]2 [EG]2 [DF]2 | [CE]2 D4 z2 | %8
w: ||||
 d2 e2 c2 A2 | z2 d6 | z2 e2 z4 | z2 d6 | [FA]2 [GB]2 [Bd]2 [Ac]2 | z2 A6 | [EG]2 [DF]4 [CE]2- | %15
w: |||||||
 [CE]2 D6- | D2 z2 z4 |] %17
w: ||
V:2
 x8 | x8 | x8 | x8 | x8 | x8 | x8 | x8 | x8 | [Ac]2 A2 G2 A2 | [Fd]2 G2- [G-c]2 [GA]2 | %11
 [Fc]2 A2 G2 A2 | x8 | [GB]2 F2 E2 D2 | x8 | x8 | x8 |] %17
V:3
 D2 A,2 A,2 A,2 | D2 D6 | D2 D2 A,2 A,2 | G,2 F,4 z2 | D2 A,2 A,2 A,2 | D2 D6 | D2 D2 A,2 A,2 | %7
 G,2 F,4 z2 | z8 | .E4 z4 | D2 C2 E4 | E2 D2 D2 D2 | D2 D6 | D2 D2 C2 D2 | B,2 A,4 A,2 | G,2 F,6- | %16
 F,2 z2 z4 |] %17
V:4
 D,2 D,2 E,2 F,2 | D,2 G,6 | G,2 A,2 z2 A,,2 | A,,2 D,4 z2 | D,2 D,2 E,2 F,2 | D,2 G,6 | %6
 G,2 A,2 z2 A,,2 | A,,2 D,4 z2 | z8 | A,G, F,2 E,2 F,2 | D,2 A,,6 | A,G, F,2 E,2 F,2 | F,2 G,6 | %13
 G,2 D,2 E,2 F,2 | G,2 z2 z2 A,,2- | A,,2 D,6- | D,2 z2 z4 |] %17
V:5
 x8 | x8 | x8 | x8 | x8 | x8 | x8 | x8 | x8 | z2 D4 A,2 | x8 | x8 | x8 | x8 | x8 | x8 | x8 |] %17

